X:202
T:Lord Chamberlain's Delight. (p)1670.PLFD.202
M:6/4
L:1/4
Q:3/4=90
S:Playford, Dancing Master,4th Ed.,1670.
O:England
H:1670.
Z:Chris Partington
K:G
d|d3B2G|ABEF2D|G3ABA|B3-B2G|BcBd2G|dedg3|
eeef2g|a3-a2d|dedg2a|babe2f|g2aabf|g3-g2:|
|:g|gag=f2f|=fgfe2c|cdcB2A|A3a3|dB2dB2|dB2d2B|
c>dBA2d|B3G2a|c'3e2e|fgad2d|efgabf|g3-g2:|
